X:495
T:Braes of Castle Grant, The
C:Joe Buchanan's Scottish Tome - Page 365.0
I:365 0
C:Duncan MacDonald 1863
R:Polka
Z:Carl Allison
L:1/8
M:2/4
K:Amaj
(e/>d/) | "A"{d}cB/<A/ e/>A/c/<e/ | "A"a/>A/a/>g/ "D"f/>e/f/<a/ | "A"c/>B/c/>f/ e/>A/c/<a/ | "E7"B/>A/B/>c/ {c}B(e/>d/) |
"A"c(B/<A/) e/>A/c/<e/ | "A"a/>A/a/>g/ "D"f/>e/f/<a/ | "A"A/>B/c/<a/ "E7"c/<e/B/>c/ | "A"A>A {A}A :|
(c/<e/) | "A"a>e f/>e/c/<e/ | "D"d/>f/f/<a/ "A"e/>A/c/<a/ | A/>a/g/<a/ e/>A/c/<a/ | "E7"B/>A/B/>c/ B(c/<e/) |
"A"a>e f/>e/c/<e/ | "D"d/>f/f/<a/ "A"e/>A/c/<a/ | A/>B/c/<a/ "E7"c/<e/B/>c/ | A<A {A}A (c/<e/) |
"A"a>e f/>e/c/<e/ | "D"d/>f/f/<a/ "A"e/>A/c/<a/ | A/>a/g/<a/ e/>A/c/<a/ | "E7"B/>A/B/>c/ B/>a/e/>d/ |
"A"c(B/<A/) e/>A/c/<e/ | "A"a/>A/a/>g/ "D"f/>e/f/<a/ | "A"A/>B/c/<a/ "E7"c/<e/B/>c/ | A>A {A}A |]
(e/>d/) | "A"c/>B/c/>B/ A/>B/c/<e/ | "D"f/>g/a/>g/ f/>e/f/<a/ | "A"c/>d/c/>B/ A/>e/c/<A/ | "E7"B/>A/B/>c/ B(e/>d/) |
"A"c/>B/c/>B/ A/>B/c/<e/ | "D"f/>g/a/>g/ f/>e/f/<a/ | "A"A/>B/c/<a/ c/<e/B/>c/ | "A"A<A {A}A :|
c/<e/ | "A"a/>A/a/>e/ f/>e/c/<e/ | "D"f/>e/f/>d/ "A"c/<e/a/>c/ | "D"A/>d/f/>d/ c/>d/e/>c/ | "E7"B/>A/B/>c/ B(c/<e/) |
"A"a/>A/a/>e/ f/>e/c/<e/ | "D"f/>e/f/>d/ "A"c/<e/a/>c/ | "F#m"A/>B/c/<a/ "A"c/<e/"E7"B/>c/ | "A"A<A {A}A (c/<e/) |
"A"a/>A/a/>e/ f/>e/c/<e/ | "D"f/>e/f/>d/ "A"c/<e/a/>c/ | "D"A/>d/f/>d/ "A"c/>d/e/>c/ | "E7"B/>A/B/>c/ Be/>d/ |
"A"c/>d/c/<B/ A/>B/c/<e/ | "D"f/>g/a/>g/ f/>e/f/<a/ | "A"A/>B/c/<a/ c/<e/"E7"B/>c/ | "A"A<A {A}A |]
